src/topics/icons/medium.svg

<svg height="208" preserveAspectRatio="xMidYMid" viewBox="0 0 256 208" width="256" xmlns="http://www.w3.org/2000/svg"><path d="m177.735242 1.67620228c-3.897377-1.85785967-7.084638.01651431-7.084638 4.17811998v165.50639674l71.14364 33.961675c7.827782 3.798291 14.177533 1.156002 14.177533-5.780008v-159.3630741c0-.6605723-.412857-1.2385731-1.023887-1.5688593l-77.204391-36.82690731v-.08257154z" fill="#32fc8d"/><path d="m85.3211734 130.636435 81.1678246-125.89682854c2.295489-3.55057627 7.348867-4.95429247 11.22973-3.13771856l77.319991 36.9094789c.495429.2477146.677087.8257154.388086 1.2385731l-84.784458 131.6272931-85.3211736-40.724284z" fill="#0be370"/><path d="m11.8077304 3.9221482c-6.49012316-3.09643279-8.6947833-.79268679-4.88823526 5.11943555l78.40167826 121.59485125 85.3211736 40.724284-85.1312591-132.0566655c-.1238573-.1899145-.2972575-.3468004-.4954292-.4458863l-73.2079283-34.92776185z" fill="#14c767"/><path d="m85.3211734 199.476329c0 6.936009-5.3093501 10.073728-11.8077304 6.969038l-66.42880478-31.707472c-3.89737673-1.849602-7.08463822-6.770866-7.08463822-10.940729v-155.41615458c0-5.54880756 4.25243436-8.05898241 9.45444145-5.57357902l75.41258845 36.0011919c.2807432.1238573.4541435.3963434.4541435.6936009v159.9410748z" fill="#00ab6c"/></svg>

<?xml version="1.0" encoding="UTF-8" standalone="no"?>
<svg width="256px" height="208px" viewBox="0 0 256 208" version="1.1" xmlns="http://www.w3.org/2000/svg" xmlns:xlink="http://www.w3.org/1999/xlink" preserveAspectRatio="xMidYMid">
	<g>
		<path d="M177.735242,1.67620228 C173.837865,-0.18165739 170.650604,1.69271659 170.650604,5.85432226 L170.650604,171.360719 L241.794244,205.322394 C249.622026,209.120685 255.971777,206.478396 255.971777,199.542386 L255.971777,40.1793119 C255.971777,39.5187396 255.55892,38.9407388 254.94789,38.6104526 L177.743499,1.78354529 L177.743499,1.70097375 L177.735242,1.67620228 L177.735242,1.67620228 Z" fill="#32FC8D"></path>
		<path d="M85.3211734,130.636435 L166.488998,4.73960646 C168.784487,1.18903019 173.837865,-0.214686007 177.718728,1.6018879 L255.038719,38.5113668 C255.534148,38.7590814 255.715806,39.3370822 255.426805,39.7499399 L170.642347,171.377233 L85.3211734,130.652949 L85.3211734,130.636435 L85.3211734,130.636435 Z" fill="#0BE370"></path>
		<path d="M11.8077304,3.9221482 C5.31760724,0.825715411 3.1129471,3.12946141 6.91949514,9.04158375 L85.3211734,130.636435 L170.642347,171.360719 L85.5110879,39.3040535 C85.3872306,39.114139 85.2138304,38.9572531 85.0156587,38.8581672 L11.8077304,3.93040535 L11.8077304,3.9221482 L11.8077304,3.9221482 Z" fill="#14C767"></path>
		<path d="M85.3211734,199.476329 C85.3211734,206.412338 80.0118233,209.550057 73.513443,206.445367 L7.08463822,174.737895 C3.18726149,172.888293 0,167.967029 0,163.797166 L0,8.38101142 C0,2.83220386 4.25243436,0.32202901 9.45444145,2.8074324 L84.8670299,38.8086243 C85.1477731,38.9324816 85.3211734,39.2049677 85.3211734,39.5022252 L85.3211734,199.4433 L85.3211734,199.476329 L85.3211734,199.476329 Z" fill="#00AB6C"></path>
	</g>
</svg>
